src/resources/assets/pin.svg

<svg xmlns="http://www.w3.org/2000/svg" width="16" height="16"><path d="M 10.058594 2.445312 C 9.347656 1.730469 8.148438 1.910156 7.671875 2.796875 L 5.652344 6.589844 L 2.84375 7.527344 C 2.675781 7.582031 2.554688 7.714844 2.511719 7.886719 C 2.472656 8.054688 2.523438 8.230469 2.644531 8.355469 L 4.792969 10.5 L 2.144531 13.148438 L 2 14 L 2.855469 13.855469 L 5.5 11.207031 L 7.644531 13.355469 C 7.769531 13.476562 7.945312 13.527344 8.113281 13.488281 C 8.285156 13.445312 8.417969 13.324219 8.472656 13.160156 L 9.410156 10.347656 L 13.191406 8.324219 C 14.074219 7.851562 14.253906 6.65625 13.542969 5.941406 Z M 8.554688 3.269531 C 8.714844 2.972656 9.113281 2.914062 9.351562 3.152344 L 12.835938 6.648438 C 13.074219 6.886719 13.011719 7.285156 12.71875 7.441406 L 8.765625 9.558594 C 8.652344 9.621094 8.566406 9.722656 8.527344 9.84375 L 7.78125 12.074219 L 3.925781 8.21875 L 6.15625 7.476562 C 6.28125 7.433594 6.382812 7.347656 6.441406 7.234375 Z M 8.554688 3.269531" fill="#ddd"/></svg>

<svg xmlns="http://www.w3.org/2000/svg" width="16" height="16"><path d="M10.059 2.445a1.502 1.502 0 00-2.387.352L5.652 6.59l-2.808.937a.498.498 0 00-.2.828L4.794 10.5l-2.648 2.648L2 14l.855-.145L5.5 11.207l2.145 2.148a.5.5 0 00.828-.195l.937-2.812 3.781-2.024a1.502 1.502 0 00.352-2.383zm-1.504.825a.501.501 0 01.797-.118l3.484 3.496a.5.5 0 01-.117.793L8.766 9.56a.505.505 0 00-.239.285l-.746 2.23L3.926 8.22l2.23-.742a.501.501 0 00.285-.243zm0 0" fill="#ddd"/></svg>
